src/images/icons/adapted-desc.svg

<svg width="102" height="104" viewBox="0 0 102 104" fill="none" xmlns="http://www.w3.org/2000/svg">
<g clip-path="url(#clip0_1_3422)">
<path d="M25.8465 75.638C31.008 75.638 60.8682 75.638 66.0236 75.638C66.2225 71.0562 65.8943 63.4543 63.0773 59.8361L62.9755 59.7062L56.8197 56.6154C56.9534 56.1646 57.0192 55.7516 57.0456 55.448C57.076 55.0836 57.0258 54.7413 56.8957 54.4313C55.8801 52.0011 53.7312 50.7226 52.5491 50.1776C52.9094 49.4519 53.1416 48.6727 53.2538 47.8767C53.9229 47.6882 54.4611 47.1579 54.6376 46.4505L55.3561 43.5314C55.4834 43.0165 55.4035 42.4824 55.1298 42.0283C55.012 41.8324 54.8597 41.6676 54.6889 41.5267C56.7147 36.925 53.3218 32.5862 53.1369 32.3578C49.4622 28.3848 44.8201 29.1277 44.5747 29.1717C37.8756 30.5745 35.2903 35.7087 36.7499 41.7301C36.3174 42.2091 36.136 42.8764 36.2962 43.5307L37.0182 46.453C37.1933 47.1552 37.7273 47.6836 38.3916 47.8743C38.5966 49.3322 39.2137 50.6508 40.12 51.7135V54.0275C30.5067 58.9506 36.598 55.8098 28.8939 59.7072C28.8786 59.78 25.279 63.6057 25.814 74.9452L25.8465 75.638ZM64.6275 74.1834H58.0152V71.4057L62.3885 61.394C64.5794 65.0304 64.6608 71.9736 64.6275 74.1834ZM55.6029 55.3244C55.3477 58.2557 53.7402 57.3697 52.7479 59.628C51.9674 58.7698 51.7327 57.7407 51.9424 56.639C52.3214 54.6163 51.0868 54.0155 51.3919 51.8902L51.4382 51.8415V51.8347C51.4644 51.8054 51.7079 51.5155 51.7783 51.4239C54.3945 52.5643 55.6539 54.6853 55.6029 55.3244ZM41.5684 53.0204C42.7829 53.8628 44.2489 54.3606 45.8258 54.3606C47.3108 54.3606 48.7213 53.9285 49.9305 53.1328C50.0981 54.8037 50.7512 55.1382 50.5195 56.3677C50.476 56.596 50.4525 56.8209 50.4386 57.0421L45.9354 62.1174L40.1788 55.6275L41.5684 54.9018V53.0204H41.5684ZM39.758 46.8091V43.9952C39.758 42.959 39.758 38.848 39.758 39.051C40.4588 37.7548 41.4142 36.8148 42.6016 36.2513C45.7818 38.0506 49.4423 40.7359 51.8971 43.4385C51.8948 46.8801 51.9068 46.8895 51.884 47.1723L51.8824 47.1902C51.6909 50.3155 49.1211 52.9061 45.8258 52.9061C42.6221 52.9061 39.9623 50.3908 39.77 47.1593C39.7601 47.0435 39.758 46.9274 39.758 46.8091ZM38.8612 56.3294L45.9354 64.3042L50.6848 58.9514C50.7933 59.264 50.9456 59.5592 51.1197 59.8444L45.9354 66.3276L38.2046 56.659L38.8612 56.3294ZM53.3455 45.6387V43.3919C53.4091 43.3189 53.9491 42.6998 53.8854 42.7728C53.9153 43.9104 54.0381 42.5677 53.3455 45.6387ZM44.8428 30.6011C45.1301 30.6189 48.9905 30.0139 52.0414 33.3077C52.1615 33.4585 54.6451 36.6584 53.6473 40.1589C53.3058 38.6012 52.7106 36.6051 51.7698 35.6525L50.7416 36.6767C51.6704 37.6175 52.2805 40.4824 52.5129 41.9676C48.2523 37.5093 42.7562 34.6875 42.6808 34.6398C42.4052 34.8112 40.0794 35.2534 38.3902 38.5364L38.3096 38.6934V41.1046C38.2371 41.1054 38.0242 41.1076 38.0967 41.1069C37.0234 35.9253 39.0787 31.8092 44.8428 30.6011ZM37.9441 42.6032L38.3096 44.084V45.6405L37.7021 43.1817C37.613 42.8152 37.8845 42.6762 37.9441 42.6032ZM36.8791 57.3244L45.9354 68.6508L52.0627 60.9873C52.7292 61.5838 53.0497 61.6684 54.4629 62.3951L53.9862 60.7783C53.8653 60.3677 54.3441 59.7094 54.6333 59.4068C55.2789 59.0566 55.817 58.5572 56.2196 57.9405L61.2188 60.4508L56.5668 71.1011V74.1834H35.3033V71.1007L30.6492 60.4519L36.8791 57.3244ZM29.4809 61.3972L33.8549 71.4061V74.1834H27.2425C27.2093 71.9743 27.2914 65.0346 29.4809 61.3972Z" fill="#FF6B09"/>
</g>
<path d="M101 15V1H1V103H101V89" stroke="#FF6B09" stroke-width="2"/>
<defs>
<clipPath id="clip0_1_3422">
<rect width="39.8298" height="48" fill="white" transform="translate(26 28)"/>
</clipPath>
</defs>
</svg>

<svg width="102" height="104" fill="none" xmlns="http://www.w3.org/2000/svg"><g clip-path="url(#a)"><path d="M25.846 75.638h40.178c.198-4.582-.13-12.184-2.947-15.802l-.102-.13-6.155-3.09c.133-.451.2-.864.226-1.168.03-.364-.02-.707-.15-1.017-1.016-2.43-3.165-3.708-4.347-4.253.36-.726.593-1.505.705-2.301a1.975 1.975 0 0 0 1.384-1.427l.718-2.919a1.975 1.975 0 0 0-.226-1.503 1.967 1.967 0 0 0-.441-.501c2.026-4.602-1.367-8.94-1.552-9.17-3.675-3.972-8.317-3.23-8.562-3.185-6.7 1.402-9.285 6.537-7.825 12.558a1.977 1.977 0 0 0-.454 1.8l.722 2.923c.175.702.71 1.23 1.374 1.421a7.52 7.52 0 0 0 1.728 3.84v2.314c-9.613 4.923-3.522 1.782-11.226 5.68-.015.072-3.615 3.898-3.08 15.237l.032.693zm38.781-1.455h-6.612v-2.777l4.373-10.012c2.191 3.636 2.273 10.58 2.24 12.79zm-9.024-18.859c-.255 2.932-1.863 2.046-2.855 4.304-.78-.858-1.015-1.887-.806-2.989.38-2.023-.855-2.623-.55-4.749l.046-.048v-.007c.026-.03.27-.32.34-.411 2.617 1.14 3.876 3.261 3.825 3.9zM41.568 53.02a7.448 7.448 0 0 0 8.363.113c.167 1.67.82 2.005.589 3.235a5.392 5.392 0 0 0-.081.674l-4.504 5.075-5.756-6.49 1.39-.725V53.02zm-1.81-6.21V39.05c.7-1.296 1.656-2.236 2.844-2.8 3.18 1.8 6.84 4.485 9.295 7.188-.002 3.441.01 3.45-.013 3.733l-.002.018c-.191 3.126-2.76 5.716-6.056 5.716-3.204 0-5.864-2.515-6.056-5.747a4.103 4.103 0 0 1-.012-.35zm-.897 9.52 7.074 7.974 4.75-5.353c.108.313.26.608.435.893l-5.185 6.484-7.73-9.669.656-.33zm14.485-10.691v-2.247l.54-.62c.03 1.138.152-.204-.54 2.867zM44.843 30.6c.287.018 4.147-.587 7.198 2.707.12.15 2.604 3.35 1.606 6.85-.341-1.557-.936-3.553-1.877-4.505l-1.028 1.024c.928.94 1.539 3.805 1.77 5.29-4.26-4.458-9.756-7.28-9.831-7.327-.276.171-2.602.613-4.29 3.896l-.081.157v2.412l-.213.002c-1.074-5.182.982-9.298 6.746-10.506zm-6.899 12.002.366 1.481v1.556l-.608-2.458c-.089-.367.183-.506.242-.579zM36.88 57.324l9.056 11.327 6.128-7.664c.666.597.987.681 2.4 1.408l-.477-1.617c-.12-.41.358-1.069.647-1.371a4.38 4.38 0 0 0 1.587-1.466l4.999 2.51-4.652 10.65v3.082H35.303v-3.082L30.65 60.45l6.23-3.127zm-7.398 4.073 4.374 10.01v2.776h-6.612c-.034-2.209.048-9.148 2.238-12.786z" fill="#FF6B09"/></g><path d="M101 15V1H1v102h100V89" stroke="#FF6B09" stroke-width="2"/><defs><clipPath id="a"><path fill="#fff" transform="translate(26 28)" d="M0 0h39.83v48H0z"/></clipPath></defs></svg>
